seeds/icons/dollar.svg

<svg height="1.5rem" viewBox="0 0 60 60" width="1.5rem" xmlns="http://www.w3.org/2000/svg"><g id="014---Dollar-Up"><path id="Shape" d="m52 53h7c.5522847 0 1-.4477153 1-1s-.4477153-1-1-1h-7c-.5522847 0-1 .4477153-1 1s.4477153 1 1 1z"/><path id="Shape" d="m45 52c0 .5522847.4477153 1 1 1h2c.5522847 0 1-.4477153 1-1s-.4477153-1-1-1h-2c-.5522847 0-1 .4477153-1 1z"/><path id="Shape" d="m59 56h-16c-.5522847 0-1 .4477153-1 1s.4477153 1 1 1h16c.5522847 0 1-.4477153 1-1s-.4477153-1-1-1z"/><path id="Shape" d="m1 53h7c.55228475 0 1-.4477153 1-1s-.44771525-1-1-1h-7c-.55228475 0-1 .4477153-1 1s.44771525 1 1 1z"/><path id="Shape" d="m12 53h2c.5522847 0 1-.4477153 1-1s-.4477153-1-1-1h-2c-.5522847 0-1 .4477153-1 1s.4477153 1 1 1z"/><path id="Shape" d="m17 56h-16c-.55228475 0-1 .4477153-1 1s.44771525 1 1 1h16c.5522847 0 1-.4477153 1-1s-.4477153-1-1-1z"/><path id="Shape" d="m46.44 41c0-6.751-5.087-12.611-11.44-14.225v-2.775h4c.3926889-.0001043.7489703-.2300322.9108325-.5878104.1618623-.3577782.0993422-.7771759-.1598325-1.0721896l-5.751-6.55v-2.948c2.3109636.916459 3.9780588 2.9700172 4.4 5.42.1253901.9927173.9693953 1.7373269 1.97 1.738h4.03c.5651521-.0027373 1.1032582-.242339 1.4834251-.6605226s.5675522-.9766224.5165749-1.5394774c-.56-6.41-5.608-11.8-12.4-13.349v-2.451c0-1.1045695-.8954305-2-2-2h-4c-1.1045695 0-2 .8954305-2 2v2.443c-7.257 1.657-12.44 7.657-12.44 14.557.0739639 4.5926901 2.2944853 8.8856982 6 11.6 1.6333324 1.1904773 3.4801194 2.0561587 5.44 2.55v6.85c.002145.7113268.3832487 1.3675874 1 1.722v2.278c-.5522847 0-1 .4477153-1 1s.4477153 1 1 1v1.158c-2.3109636-.916459-3.9780588-2.9700172-4.4-5.42-.1253901-.9927173-.9693953-1.7373269-1.97-1.738h-4.03c-.5651521.0027373-1.1032582.242339-1.4834251.6605226s-.5675522.9766224-.5165749 1.5394774c.56 6.41 5.608 11.8 12.4 13.349v2.451c0 1.1045695.8954305 2 2 2h4c1.1045695 0 2-.8954305 2-2v-2.443c7.257-1.657 12.44-7.657 12.44-14.557zm-12.44 5c.5522847 0 1-.4477153 1-1s-.4477153-1-1-1v-2.278c.6167513-.3544126.997855-1.0106732 1-1.722v-4.624c5.018 3.1 4.412 9.368-1 11.782zm0-24c-.5522847 0-1 .4477153-1 1v17h-6v-17c0-.5522847-.4477153-1-1-1h-2.348l6.568-7.483 6.571 7.483zm-8-9.154v3.446l-4.079 4.647c-1.216-3.365.806-6.632 4.079-8.093zm-1 11.744c-.3162721-.1469744-.6053617-.3464631-.855-.59h.855zm-9.44-5.59c0-6.186 4.885-11.55 11.616-12.756.476686-.08522708.8238111-.49975507.824-.984v-3.26h4v3.27c.000102.4839293.3467115.89834452.823.984 6.314 1.133 11.077 5.961 11.577 11.753h-4.018c-.444-3.494-3.234-6.453-7.11-7.549-.3014308-.0852015-.6253692-.0242372-.8752056.1647115-.2498365.1889486-.3967013.4840476-.3967944.7972885v2.092l-1.028-1.171c-.189833-.2152504-.4629994-.3385622-.75-.3385622s-.560167.1233118-.75.3385622l-1.472 1.672v-2.593c-.0109719-.3091219-.1605513-.5968719-.4072577-.7834534-.2467065-.1865814-.5643127-.2521588-.8647423-.1785466-5.651 1.6-8.888 7.144-6.22 12.205-.1111628.2921234-.0763135.6197506.0938123.8819537.1701258.2622032.4551198.4275285.7671877.4450463.9224503 1.2628186 2.1803509 2.2418401 3.631 2.826v4.263c-5.4635782-1.507764-9.2971216-6.412994-9.44-12.079zm12.44 23h4v2h-4zm4.824 11.756c-.476686.0852271-.8238111.4997551-.824.984v3.26h-4v-3.27c-.000102-.4839293-.3467115-.8983445-.823-.984-6.314-1.133-11.077-5.961-11.577-11.753h4.018c.444 3.494 3.234 6.453 7.11 7.549.3014308.0852015.6253692.0242372.8752056-.1647115.2498365-.1889486.3967013-.4840476.3967944-.7972885v-2.58h4v2.58c.0000931.3132409.1469579.6083399.3967944.7972885.2498364.1889487.5737748.249913.8752056.1647115 4.288-1.215 7.168-4.642 7.168-8.542-.1421014-3.460739-2.2575791-6.5328481-5.44-7.9v-4.277c5.145 1.526 9.44 6.462 9.44 12.177 0 6.185-4.885 11.55-11.616 12.756z"/></g></svg>

<svg xmlns="http://www.w3.org/2000/svg" width="1.5rem" height="1.5rem" viewBox="0 0 60 60"><path d="M52 53h7a1 1 0 0 0 0-2h-7a1 1 0 0 0 0 2M45 52a1 1 0 0 0 1 1h2a1 1 0 0 0 0-2h-2a1 1 0 0 0-1 1M59 56H43a1 1 0 0 0 0 2h16a1 1 0 0 0 0-2M1 53h7a1 1 0 0 0 0-2H1a1 1 0 0 0 0 2M12 53h2a1 1 0 0 0 0-2h-2a1 1 0 0 0 0 2M17 56H1a1 1 0 0 0 0 2h16a1 1 0 0 0 0-2M46.44 41c0-6.751-5.087-12.611-11.44-14.225V24h4a1 1 0 0 0 .751-1.66L34 15.79v-2.948a7.13 7.13 0 0 1 4.4 5.42c.125.993.97 1.737 1.97 1.738h4.03a2.02 2.02 0 0 0 2-2.2C45.84 11.39 40.792 6 34 4.451V2a2 2 0 0 0-2-2h-4a2 2 0 0 0-2 2v2.443C18.743 6.1 13.56 12.1 13.56 19a14.67 14.67 0 0 0 6 11.6A15.8 15.8 0 0 0 25 33.15V40a1.99 1.99 0 0 0 1 1.722V44a1 1 0 0 0 0 2v1.158a7.13 7.13 0 0 1-4.4-5.42A1.99 1.99 0 0 0 19.63 40H15.6a2.02 2.02 0 0 0-2 2.2c.56 6.41 5.608 11.8 12.4 13.349V58a2 2 0 0 0 2 2h4a2 2 0 0 0 2-2v-2.443C41.257 53.9 46.44 47.9 46.44 41M34 46a1 1 0 0 0 0-2v-2.278A1.99 1.99 0 0 0 35 40v-4.624c5.018 3.1 4.412 9.368-1 11.782zm0-24a1 1 0 0 0-1 1v17h-6V23a1 1 0 0 0-1-1h-2.348l6.568-7.483L36.791 22zm-8-9.154v3.446l-4.079 4.647c-1.216-3.365.806-6.632 4.079-8.093M25 24.59a3.1 3.1 0 0 1-.855-.59H25zM15.56 19c0-6.186 4.885-11.55 11.616-12.756A1 1 0 0 0 28 5.26V2h4v3.27a1 1 0 0 0 .823.984C39.137 7.387 43.9 12.215 44.4 18.007h-4.018c-.444-3.494-3.234-6.453-7.11-7.549A1 1 0 0 0 32 11.42v2.092l-1.028-1.171a1 1 0 0 0-1.5 0L28 14.013V11.42a1.028 1.028 0 0 0-1.272-.962c-5.651 1.6-8.888 7.144-6.22 12.205a.98.98 0 0 0 .861 1.327A8.37 8.37 0 0 0 25 26.816v4.263A12.87 12.87 0 0 1 15.56 19M28 42h4v2h-4zm4.824 11.756a1 1 0 0 0-.824.984V58h-4v-3.27a1 1 0 0 0-.823-.984C20.863 52.613 16.1 47.785 15.6 41.993h4.018c.444 3.494 3.234 6.453 7.11 7.549A1 1 0 0 0 28 48.58V46h4v2.58a1 1 0 0 0 1.272.962C37.56 48.327 40.44 44.9 40.44 41A9 9 0 0 0 35 33.1v-4.277c5.145 1.526 9.44 6.462 9.44 12.177 0 6.185-4.885 11.55-11.616 12.756"/></svg>
